X: 28917
T: Na Deora Mora
R: slip jig
M: 9/8
K: Aminor
|:c|BAG AEE A2c|B3 efe dcB|A2c BAG AEE|efe dcB A2:|
a|ged cAG A2 (a|a) ge ged cAG|A2 a ged cAG|efe dcB A2:|

